img/sponsor-makers-academy.svg

<svg width="296" height="28" viewBox="0 0 296 28" xmlns="http://www.w3.org/2000/svg"><title>sponsor-makers-academy</title><g fill="#005EC6" fill-rule="evenodd"><path d="M27.2 27.3H.7V.7h26.5v26.6zM23 10h-8v8.3c2.7-2.4 5.3-2.2 8 0V10zM4.9 18h7.9V9.6c-2.7 2.6-5.2 2.2-7.9.2V18zM36.9 24.5l4.2-21.2 6.7 15.3 7-15.3 3.7 21.2h-3l-1.9-11.9-5.8 12.8-5.7-12.8L40 24.5h-3.1zM75.6 19.7h-8.4L65 24.5h-3.2l9.7-20.9 9.4 20.9h-3.2l-2.1-4.8zm-1.2-2.8l-2.9-6.7-3 6.7h5.9zM87.7 12.7l7.6-7.9h4l-8.9 8.9 9 10.8h-4l-7.1-8.8-.6.6v8.2h-3V4.8h3v7.9zM114.2 7.6h-7.9v4.7h7.7v2.8h-7.7v6.6h7.9v2.8h-10.8V4.8h10.8v2.8zM126.1 16.1l6.1 8.4h-3.6l-5.6-8h-.5v8h-3V4.8h3.5c2.6 0 4.5.5 5.6 1.5 1.3 1.1 1.9 2.5 1.9 4.3 0 1.4-.4 2.6-1.2 3.6-.8 1-1.9 1.6-3.2 1.9zm-3.7-2.3h.9c2.8 0 4.2-1.1 4.2-3.2 0-2-1.4-3-4.1-3h-1v6.2zM147.6 7.7l-2.4 1.4c-.5-.8-.9-1.3-1.3-1.5-.4-.3-1-.4-1.7-.4-.8 0-1.5.2-2 .7-.5.5-.8 1-.8 1.7 0 1 .7 1.7 2.2 2.3l2 .8c1.6.7 2.8 1.4 3.5 2.3.7.9 1.1 2.1 1.1 3.4 0 1.8-.6 3.3-1.8 4.5-1.2 1.2-2.7 1.8-4.5 1.8-1.7 0-3.1-.5-4.2-1.5s-1.8-2.4-2-4.3l3-.7c.2 1.2.4 2 .7 2.4.6.8 1.5 1.3 2.7 1.3.9 0 1.7-.3 2.3-.9.6-.6.9-1.4.9-2.3 0-.4 0-.7-.2-1-.1-.3-.3-.6-.5-.9-.2-.3-.5-.5-.9-.8-.3-.2-.8-.5-1.3-.7l-1.9-.8c-2.7-1.2-4-2.8-4-5 0-1.5.6-2.7 1.7-3.7s2.5-1.5 4.2-1.5c2.2.1 4 1.2 5.2 3.4M174 19.7h-8.4l-2.2 4.8h-3.2l9.7-20.9 9.4 20.9h-3.2l-2.1-4.8zm-1.2-2.8l-2.9-6.7-3 6.7h5.9zM196.1 5.8v3.5c-1.7-1.4-3.5-2.2-5.3-2.2-2 0-3.7.7-5.1 2.2-1.4 1.5-2.1 3.2-2.1 5.3 0 2.1.7 3.8 2.1 5.2 1.4 1.4 3.1 2.1 5.1 2.1 1 0 1.9-.2 2.7-.5.4-.2.8-.4 1.3-.7.4-.3.9-.7 1.4-1v3.6c-1.7 1-3.5 1.5-5.4 1.5-2.8 0-5.2-1-7.2-3s-3-4.4-3-7.2c0-2.5.8-4.7 2.5-6.7 2-2.4 4.7-3.6 7.9-3.6 1.7.1 3.5.6 5.1 1.5M212.5 19.7h-8.4l-2.2 4.8h-3.2l9.7-20.9 9.4 20.9h-3.2l-2.1-4.8zm-1.1-2.8l-2.9-6.7-3 6.7h5.9zM221 24.5V4.8h4.1c2 0 3.5.2 4.7.6 1.2.4 2.3 1 3.3 2 2 1.8 3 4.3 3 7.3s-1 5.5-3.2 7.4c-1.1.9-2.2 1.6-3.3 2-1.1.4-2.6.5-4.6.5l-4-.1zm3-2.8h1.3c1.3 0 2.4-.2 3.3-.4.9-.3 1.7-.8 2.4-1.4 1.5-1.3 2.2-3.1 2.2-5.2 0-2.2-.7-3.9-2.2-5.2-1.3-1.2-3.2-1.8-5.7-1.8H224v14zM251.5 7.6h-7.9v4.7h7.7v2.8h-7.7v6.6h7.9v2.8h-10.8V4.8h10.8v2.8zM255.4 24.5l4.2-21.2 6.7 15.3 7-15.3 3.7 21.2h-3l-1.9-11.9-5.8 12.8-5.7-12.8-2.1 11.9h-3.1zM291.9 4.8l-4.5 7.9-4.6-7.9h-3.4l6.5 11.2v8.5h2.9V16l6.5-11.2h-3.4z"/></g></svg>

<?xml version="1.0" encoding="UTF-8" standalone="no"?>
<svg width="296px" height="28px" viewBox="0 0 296 28" version="1.1" xmlns="http://www.w3.org/2000/svg" xmlns:xlink="http://www.w3.org/1999/xlink" xmlns:sketch="http://www.bohemiancoding.com/sketch/ns">
    <!-- Generator: Sketch 3.3.3 (12072) - http://www.bohemiancoding.com/sketch -->
    <title>sponsor-makers-academy</title>
    <desc>Created with Sketch.</desc>
    <defs></defs>
    <g id="Page-1" stroke="none" stroke-width="1" fill="none" fill-rule="evenodd" sketch:type="MSPage">
        <g id="sponsor-makers-academy" sketch:type="MSLayerGroup" fill="#005EC6">
            <path d="M27.2,27.3 L0.7,27.3 L0.7,0.7 L27.2,0.7 L27.2,27.3 L27.2,27.3 Z M23,10 L15,10 L15,18.3 C17.7,15.9 20.3,16.1 23,18.3 L23,10 L23,10 Z M4.9,18 L12.8,18 L12.8,9.6 C10.1,12.2 7.6,11.8 4.9,9.8 L4.9,18 L4.9,18 Z" id="Shape" sketch:type="MSShapeGroup"></path>
            <path d="M36.9,24.5 L41.1,3.3 L47.8,18.6 L54.8,3.3 L58.5,24.5 L55.5,24.5 L53.6,12.6 L47.8,25.4 L42.1,12.6 L40,24.5 L36.9,24.5 Z" id="Shape" sketch:type="MSShapeGroup"></path>
            <path d="M75.6,19.7 L67.2,19.7 L65,24.5 L61.8,24.5 L71.5,3.6 L80.9,24.5 L77.7,24.5 L75.6,19.7 L75.6,19.7 Z M74.4,16.9 L71.5,10.2 L68.5,16.9 L74.4,16.9 L74.4,16.9 Z" id="Shape" sketch:type="MSShapeGroup"></path>
            <path d="M87.7,12.7 L95.3,4.8 L99.3,4.8 L90.4,13.7 L99.4,24.5 L95.4,24.5 L88.3,15.7 L87.7,16.3 L87.7,24.5 L84.7,24.5 L84.7,4.8 L87.7,4.8 L87.7,12.7 Z" id="Shape" sketch:type="MSShapeGroup"></path>
            <path d="M114.2,7.6 L106.3,7.6 L106.3,12.3 L114,12.3 L114,15.1 L106.3,15.1 L106.3,21.7 L114.2,21.7 L114.2,24.5 L103.4,24.5 L103.4,4.8 L114.2,4.8 L114.2,7.6 Z" id="Shape" sketch:type="MSShapeGroup"></path>
            <path d="M126.1,16.1 L132.2,24.5 L128.6,24.5 L123,16.5 L122.5,16.5 L122.5,24.5 L119.5,24.5 L119.5,4.8 L123,4.8 C125.6,4.8 127.5,5.3 128.6,6.3 C129.9,7.4 130.5,8.8 130.5,10.6 C130.5,12 130.1,13.2 129.3,14.2 C128.5,15.2 127.4,15.8 126.1,16.1 L126.1,16.1 Z M122.4,13.8 L123.3,13.8 C126.1,13.8 127.5,12.7 127.5,10.6 C127.5,8.6 126.1,7.6 123.4,7.6 L122.4,7.6 L122.4,13.8 L122.4,13.8 Z" id="Shape" sketch:type="MSShapeGroup"></path>
            <path d="M147.6,7.7 L145.2,9.1 C144.7,8.3 144.3,7.8 143.9,7.6 C143.5,7.3 142.9,7.2 142.2,7.2 C141.4,7.2 140.7,7.4 140.2,7.9 C139.7,8.4 139.4,8.9 139.4,9.6 C139.4,10.6 140.1,11.3 141.6,11.9 L143.6,12.7 C145.2,13.4 146.4,14.1 147.1,15 C147.8,15.9 148.2,17.1 148.2,18.4 C148.2,20.2 147.6,21.7 146.4,22.9 C145.2,24.1 143.7,24.7 141.9,24.7 C140.2,24.7 138.8,24.2 137.7,23.2 C136.6,22.2 135.9,20.8 135.7,18.9 L138.7,18.2 C138.9,19.4 139.1,20.2 139.4,20.6 C140,21.4 140.9,21.9 142.1,21.9 C143,21.9 143.8,21.6 144.4,21 C145,20.4 145.3,19.6 145.3,18.7 C145.3,18.3 145.3,18 145.1,17.7 C145,17.4 144.8,17.1 144.6,16.8 C144.4,16.5 144.1,16.3 143.7,16 C143.4,15.8 142.9,15.5 142.4,15.3 L140.5,14.5 C137.8,13.3 136.5,11.7 136.5,9.5 C136.5,8 137.1,6.8 138.2,5.8 C139.3,4.8 140.7,4.3 142.4,4.3 C144.6,4.4 146.4,5.5 147.6,7.7" id="Shape" sketch:type="MSShapeGroup"></path>
            <path d="M174,19.7 L165.6,19.7 L163.4,24.5 L160.2,24.5 L169.9,3.6 L179.3,24.5 L176.1,24.5 L174,19.7 L174,19.7 Z M172.8,16.9 L169.9,10.2 L166.9,16.9 L172.8,16.9 L172.8,16.9 Z" id="Shape" sketch:type="MSShapeGroup"></path>
            <path d="M196.1,5.8 L196.1,9.3 C194.4,7.9 192.6,7.1 190.8,7.1 C188.8,7.1 187.1,7.8 185.7,9.3 C184.3,10.8 183.6,12.5 183.6,14.6 C183.6,16.7 184.3,18.4 185.7,19.8 C187.1,21.2 188.8,21.9 190.8,21.9 C191.8,21.9 192.7,21.7 193.5,21.4 C193.9,21.2 194.3,21 194.8,20.7 C195.2,20.4 195.7,20 196.2,19.7 L196.2,23.3 C194.5,24.3 192.7,24.8 190.8,24.8 C188,24.8 185.6,23.8 183.6,21.8 C181.6,19.8 180.6,17.4 180.6,14.6 C180.6,12.1 181.4,9.9 183.1,7.9 C185.1,5.5 187.8,4.3 191,4.3 C192.7,4.4 194.5,4.9 196.1,5.8" id="Shape" sketch:type="MSShapeGroup"></path>
            <path d="M212.5,19.7 L204.1,19.7 L201.9,24.5 L198.7,24.5 L208.4,3.6 L217.8,24.5 L214.6,24.5 L212.5,19.7 L212.5,19.7 Z M211.4,16.9 L208.5,10.2 L205.5,16.9 L211.4,16.9 L211.4,16.9 Z" id="Shape" sketch:type="MSShapeGroup"></path>
            <path d="M221,24.5 L221,4.8 L225.1,4.8 C227.1,4.8 228.6,5 229.8,5.4 C231,5.8 232.1,6.4 233.1,7.4 C235.1,9.2 236.1,11.7 236.1,14.7 C236.1,17.7 235.1,20.2 232.9,22.1 C231.8,23 230.7,23.7 229.6,24.1 C228.5,24.5 227,24.6 225,24.6 L221,24.5 L221,24.5 Z M224,21.7 L225.3,21.7 C226.6,21.7 227.7,21.5 228.6,21.3 C229.5,21 230.3,20.5 231,19.9 C232.5,18.6 233.2,16.8 233.2,14.7 C233.2,12.5 232.5,10.8 231,9.5 C229.7,8.3 227.8,7.7 225.3,7.7 L224,7.7 L224,21.7 L224,21.7 Z" id="Shape" sketch:type="MSShapeGroup"></path>
            <path d="M251.5,7.6 L243.6,7.6 L243.6,12.3 L251.3,12.3 L251.3,15.1 L243.6,15.1 L243.6,21.7 L251.5,21.7 L251.5,24.5 L240.7,24.5 L240.7,4.8 L251.5,4.8 L251.5,7.6 Z" id="Shape" sketch:type="MSShapeGroup"></path>
            <path d="M255.4,24.5 L259.6,3.3 L266.3,18.6 L273.3,3.3 L277,24.5 L274,24.5 L272.1,12.6 L266.3,25.4 L260.6,12.6 L258.5,24.5 L255.4,24.5 Z" id="Shape" sketch:type="MSShapeGroup"></path>
            <path d="M291.9,4.8 L287.4,12.7 L282.8,4.8 L279.4,4.8 L285.9,16 L285.9,24.5 L288.8,24.5 L288.8,16 L295.3,4.8 L291.9,4.8 Z" id="Shape" sketch:type="MSShapeGroup"></path>
        </g>
    </g>
</svg>
